X: 7
T: The Fairy Dance
R: reel
M: 4/4
L: 1/8
K: Dmaj
de|:"D"f2fd f2fd   |"D"gfed "A"cde2  |"Bm"f2fd "G"gfed |"A"cABc "A7"d2d2  |
  |"D"f2fd f2fd    |"D"gfed "A"cde2  |"Bm"f2fd "G"gfed |"A"cABc "A7"defg  |
  |"D"a2af "G"b2ba |"Em"g2ge "A"a2ag |"Bm"f2fd "G"gfed |"A"cABc "A7"defg  |
  |"D"a2af "G"b2ba |"Em"g2ge "A"a2ag |"Bm"f2fd "G"gfed |1"A"cABc "D"d2d2 :|2 "A"cABc "D"d2|]
